build/documents/SignAnotherPersonOutline.svg

<svg xmlns="http://www.w3.org/2000/svg" fill="none" viewBox="0 0 24 24" focusable="false"><path d="M0 0H24V24H0z"/><path fill="#74767B" fill-rule="evenodd" d="M20.9878 4.65C20.9878 4.29102 20.6968 4 20.3378 4L14.3182 4C13.9592 4 13.6682 4.29102 13.6682 4.65C13.6682 5.00899 13.9592 5.3 14.3182 5.3L20.3378 5.3C20.6968 5.3 20.9878 5.00899 20.9878 4.65ZM7.44136 4.47158C7.94904 3.9639 8.77215 3.9639 9.27984 4.47158L19.7522 14.9439C20.1498 15.3415 20.4276 15.8428 20.554 16.3907L20.9535 18.1218C21.1695 19.0579 20.3306 19.8968 19.3945 19.6808L17.6634 19.2813C17.1155 19.1549 16.6142 18.8771 16.2167 18.4795L5.7443 8.00711C5.23662 7.49943 5.23662 6.67632 5.7443 6.16864L7.44136 4.47158ZM6.66354 7.08788L8.3606 5.39082L9.98173 7.01196L8.28467 8.70901L6.66354 7.08788ZM20.3378 7.53369C20.6968 7.53369 20.9878 7.82471 20.9878 8.18369C20.9878 8.54268 20.6968 8.83369 20.3378 8.83369L17.711 8.83369C17.352 8.83369 17.061 8.54268 17.061 8.18369C17.061 7.82471 17.352 7.53369 17.711 7.53369L20.3378 7.53369ZM18.8329 15.8632L10.901 7.9312L9.20391 9.62825L17.1359 17.5602C17.3612 17.7855 17.6453 17.943 17.9557 18.0146L19.6868 18.4141L19.2873 16.683C19.2157 16.3726 19.0582 16.0885 18.8329 15.8632ZM9.10676 18.8349C8.55417 19.3011 7.83343 19.9092 6.65244 19.9092C4.58092 19.9092 3.61403 18.5611 3.23261 18.0293C3.19894 17.9823 3.16983 17.9417 3.14493 17.909C2.92757 17.6233 2.98298 17.2155 3.26869 16.9981C3.5544 16.7808 3.96221 16.8362 4.17956 17.1219C4.21297 17.1658 4.24801 17.2137 4.28518 17.2646C4.6649 17.7839 5.26833 18.6092 6.65245 18.6092C7.33539 18.6092 7.7328 18.2928 8.30111 17.8138L8.32979 17.7896C8.88411 17.322 9.6069 16.7123 10.7938 16.7123C12.7739 16.7123 13.8432 18.1105 14.2552 18.6493C14.3131 18.725 14.358 18.7837 14.3906 18.8192C14.6336 19.0835 14.6164 19.4947 14.3522 19.7377C14.0879 19.9806 13.6767 19.9634 13.4337 19.6992C13.3468 19.6046 13.2574 19.4936 13.1615 19.3743C12.6923 18.7912 12.0657 18.0123 10.7938 18.0123C10.106 18.0123 9.70604 18.3297 9.139 18.8077L9.10676 18.8349Z"/></svg>

<svg xmlns="http://www.w3.org/2000/svg" fill="none" viewBox="0 0 24 24" focusable="false"><path fill="#74767B" fill-rule="evenodd" d="M20.98 4.65c0-.36-.29-.65-.65-.65h-6.02c-.36 0-.65.29-.65.65 0 .35.29.64.65.64h6.02c.36 0 .65-.29.65-.64M7.44 4.47c.5-.51 1.33-.51 1.83 0l10.48 10.47c.39.4.67.9.8 1.45l.4 1.73c.21.93-.62 1.77-1.56 1.56l-1.73-.4c-.55-.13-1.05-.41-1.45-.81L5.74 8c-.51-.51-.51-1.33 0-1.84zm-.78 2.61 1.7-1.69 1.62 1.62-1.7 1.69zm13.67.45c.36 0 .65.29.65.65s-.29.65-.65.65h-2.62c-.36 0-.65-.29-.65-.65s.29-.65.65-.65zm-1.5 8.33L10.9 7.93 9.2 9.62l7.93 7.94c.23.22.51.38.82.45l1.73.4-.4-1.73c-.07-.31-.23-.6-.45-.82M9.1 18.83c-.55.47-1.27 1.07-2.45 1.07-2.07 0-3.04-1.34-3.42-1.88a.5.5 0 0 1-.09-.12.65.65 0 0 1 .12-.91c.29-.21.7-.16.91.13.04.04.07.09.11.14.38.52.98 1.34 2.37 1.34.68 0 1.08-.31 1.65-.79l.02-.03c.56-.46 1.28-1.07 2.47-1.07 1.98 0 3.05 1.4 3.46 1.93.06.08.1.14.14.17.24.27.22.68-.04.92a.64.64 0 0 1-.92-.04c-.09-.09-.18-.2-.27-.32-.47-.58-1.1-1.36-2.37-1.36-.69 0-1.09.31-1.66.79z"/></svg>
